assets/icon.svg

<?xml version="1.0" encoding="UTF-8" standalone="no"?>
<svg
   xmlns:dc="http://purl.org/dc/elements/1.1/"
   xmlns:cc="http://creativecommons.org/ns#"
   xmlns:rdf="http://www.w3.org/1999/02/22-rdf-syntax-ns#"
   xmlns:svg="http://www.w3.org/2000/svg"
   xmlns="http://www.w3.org/2000/svg"
   xmlns:sodipodi="http://sodipodi.sourceforge.net/DTD/sodipodi-0.dtd"
   xmlns:inkscape="http://www.inkscape.org/namespaces/inkscape"
   inkscape:version="1.0 (4035a4fb49, 2020-05-01)"
   sodipodi:docname="icon.svg"
   xml:space="preserve"
   style="enable-background:new 0 0 667 666;"
   viewBox="0 0 667 666"
   y="0px"
   x="0px"
   id="Layer_1"
   version="1.1"><path
   sodipodi:nodetypes="ccccccccccccc"
   id="path858"
   d="m 39.684782,391.08426 148.069178,0.81302 v -63.41465 l -60.97565,35.77238 v -75.6098 h 17.88621 l -0.10158,-22.86587 -105.58947,1.1179 v 23.37398 h 17.073158 v 78.86182 H 39.786462 Z"
   style="fill:#000000;fill-opacity:1;stroke:#010000;stroke-width:2.62467px;stroke-linecap:butt;stroke-linejoin:miter;stroke-opacity:1" /><path
   sodipodi:nodetypes="cccccccscc"
   id="path860"
   d="m 321.90038,266.69399 v 23.57723 h 17.07318 v 78.86182 h -17.07318 v 21.95125 h 108.94315 c 0,0 48.0691,-3.40205 47.96748,-62.60166 -0.10105,-58.88478 -55.28457,-62.60166 -55.28457,-62.60166 z"
   style="fill:#000000;fill-opacity:1;stroke:#010000;stroke-width:2.62467px;stroke-linecap:butt;stroke-linejoin:miter;stroke-opacity:1" /><path
   sodipodi:nodetypes="ccsc"
   id="path862"
   d="m 403.20123,305.71839 v 47.96751 c 0,0 20.4581,1.31624 20.73172,-22.76424 0.28992,-25.51679 -20.73172,-25.20327 -20.73172,-25.20327 z"
   style="fill:#ffffff;fill-opacity:1;stroke:#010000;stroke-width:2.62467px;stroke-linecap:butt;stroke-linejoin:miter;stroke-opacity:1" /><path
   style="fill:#000000;fill-opacity:1;stroke:#010000;stroke-width:2.62467px;stroke-linecap:butt;stroke-linejoin:miter;stroke-opacity:1"
   d="m 481.4429,391.08426 148.06918,0.81302 v -63.41465 l -60.97565,35.77238 v -75.6098 h 17.8862 l -0.10157,-22.86587 -105.58948,1.1179 v 23.37398 h 17.07316 v 78.86182 h -16.26016 z"
   id="path864"
   sodipodi:nodetypes="ccccccccccccc" /><path
   id="path866"
   d="m 254.91142,280.51321 -66.11163,66.68654 v 21.84558 l 16.09675,-16.09676 47.71535,48.00281 -18.39628,18.10885 10.92279,11.49767 91.98143,-91.98141 v -24.43258 l -23.28282,24.43258 z"
   style="fill:#000000;fill-opacity:1;stroke:#010000;stroke-width:2.62467px;stroke-linecap:butt;stroke-linejoin:miter;stroke-opacity:1" /><path
   sodipodi:arc-type="arc"
   sodipodi:open="true"
   sodipodi:end="0.83455187"
   sodipodi:start="0.83683651"
   sodipodi:ry="36.78265"
   sodipodi:rx="36.78265"
   sodipodi:cy="234.23508"
   sodipodi:cx="246.86302"
   sodipodi:type="arc"
   id="path868"
   style="fill:#000000;fill-opacity:1;fill-rule:evenodd;stroke:#010000;stroke-width:2.64462;stroke-opacity:1"
   d="m 271.5006,261.54722 a 36.78265,36.78265 0 0 1 -51.93565,-2.65897 36.78265,36.78265 0 0 1 2.62931,-51.93715 36.78265,36.78265 0 0 1 51.93865,2.59964 36.78265,36.78265 0 0 1 -2.56998,51.94012" /><metadata
   id="metadata319"><rdf:RDF><cc:Work
       rdf:about=""><dc:format>image/svg+xml</dc:format><dc:type
         rdf:resource="http://purl.org/dc/dcmitype/StillImage" /></cc:Work></rdf:RDF></metadata><defs
   id="defs317"><marker
     inkscape:isstock="true"
     style="overflow:visible"
     id="Arrow1Send"
     refX="0"
     refY="0"
     orient="auto"
     inkscape:stockid="Arrow1Send"><path
       transform="matrix(-0.2,0,0,-0.2,-1.2,0)"
       style="fill:#000000;fill-opacity:1;fill-rule:evenodd;stroke:#000000;stroke-width:1.00000003pt;stroke-opacity:1"
       d="M 0,0 5,-5 -12.5,0 5,5 Z"
       id="path4714"
       inkscape:connector-curvature="0" /></marker><clipPath
     id="clipPath69-0"><path
       d="m 409.441,126.252 v -43.63 h 147.796 v 43.63"
       id="path71-2"
       inkscape:connector-curvature="0" /></clipPath><clipPath
     id="clipPath101-1"><path
       d="m 409.441,126.252 v -43.63 h 147.796 v 43.63"
       id="path103-6"
       inkscape:connector-curvature="0" /></clipPath><clipPath
     id="clipPath69"><path
       d="m 409.441,126.252 v -43.63 h 147.796 v 43.63"
       id="path71"
       inkscape:connector-curvature="0" /></clipPath><clipPath
     id="clipPath101"><path
       d="m 409.441,126.252 v -43.63 h 147.796 v 43.63"
       id="path103"
       inkscape:connector-curvature="0" /></clipPath></defs><sodipodi:namedview
   inkscape:document-rotation="0"
   inkscape:current-layer="Layer_1"
   inkscape:window-maximized="1"
   inkscape:window-y="-8"
   inkscape:window-x="-8"
   inkscape:cy="374.07984"
   inkscape:cx="371.13476"
   inkscape:zoom="1.0022655"
   showgrid="false"
   id="namedview315"
   inkscape:window-height="987"
   inkscape:window-width="1680"
   inkscape:pageshadow="2"
   inkscape:pageopacity="0"
   guidetolerance="10"
   gridtolerance="10"
   objecttolerance="10"
   borderopacity="1"
   bordercolor="#666666"
   pagecolor="#ffffff" />
<style
   id="style2"
   type="text/css">
	.st0{fill:none;stroke:#000000;stroke-width:2;stroke-linecap:round;stroke-linejoin:round;stroke-miterlimit:10;}
</style>


<style
   id="style6578"
   type="text/css">.st0{fill:#2b8ca1}</style></svg>

<?xml version="1.0" encoding="UTF-8" standalone="no"?>
<svg
   xmlns:dc="http://purl.org/dc/elements/1.1/"
   xmlns:cc="http://creativecommons.org/ns#"
   xmlns:rdf="http://www.w3.org/1999/02/22-rdf-syntax-ns#"
   xmlns:svg="http://www.w3.org/2000/svg"
   xmlns="http://www.w3.org/2000/svg"
   xmlns:sodipodi="http://sodipodi.sourceforge.net/DTD/sodipodi-0.dtd"
   xmlns:inkscape="http://www.inkscape.org/namespaces/inkscape"
   version="1.1"
   id="Layer_1"
   x="0px"
   y="0px"
   viewBox="0 0 667 666"
   style="enable-background:new 0 0 667 666;"
   xml:space="preserve"
   sodipodi:docname="icon.svg"
   inkscape:version="1.0 (4035a4fb49, 2020-05-01)"><path
   style="fill:#000000;fill-opacity:1;stroke:#010000;stroke-width:2.62467px;stroke-linecap:butt;stroke-linejoin:miter;stroke-opacity:1"
   d="m 39.684782,391.08426 148.069178,0.81302 v -63.41465 l -60.97565,35.77238 v -75.6098 h 17.88621 l -0.10158,-22.86587 -105.58947,1.1179 v 23.37398 h 17.073158 v 78.86182 H 39.786462 Z"
   id="path858"
   sodipodi:nodetypes="ccccccccccccc" /><path
   d="M 423.52734 265.88086 L 321.90039 266.69336 L 321.90039 290.27148 L 338.97266 290.27148 L 338.97266 369.13281 L 321.90039 369.13281 L 321.90039 391.08398 L 430.84375 391.08398 C 430.84375 391.08398 478.91217 387.68203 478.81055 328.48242 C 478.7095 269.59764 423.52734 265.88086 423.52734 265.88086 z M 403.20117 305.71875 C 403.20117 305.71875 424.22351 305.40508 423.93359 330.92188 C 423.65997 355.00236 403.20117 353.68555 403.20117 353.68555 L 403.20117 305.71875 z "
   style="fill:#000000;fill-opacity:1;stroke:#010000;stroke-width:2.62467px;stroke-linecap:butt;stroke-linejoin:miter;stroke-opacity:1"
   id="path860" /><path
   sodipodi:nodetypes="ccccccccccccc"
   id="path864"
   d="m 481.4429,391.08426 148.06918,0.81302 v -63.41465 l -60.97565,35.77238 v -75.6098 h 17.8862 l -0.10157,-22.86587 -105.58948,1.1179 v 23.37398 h 17.07316 v 78.86182 h -16.26016 z"
   style="fill:#000000;fill-opacity:1;stroke:#010000;stroke-width:2.62467px;stroke-linecap:butt;stroke-linejoin:miter;stroke-opacity:1" /><path
   style="fill:#000000;fill-opacity:1;stroke:#010000;stroke-width:2.62467px;stroke-linecap:butt;stroke-linejoin:miter;stroke-opacity:1"
   d="m 254.91142,280.51321 -66.11163,66.68654 v 21.84558 l 16.09675,-16.09676 47.71535,48.00281 -18.39628,18.10885 10.92279,11.49767 91.98143,-91.98141 v -24.43258 l -23.28282,24.43258 z"
   id="path866" /><path
   d="m 271.5006,261.54722 a 36.78265,36.78265 0 0 1 -51.93565,-2.65897 36.78265,36.78265 0 0 1 2.62931,-51.93715 36.78265,36.78265 0 0 1 51.93865,2.59964 36.78265,36.78265 0 0 1 -2.56998,51.94012"
   style="fill:#000000;fill-opacity:1;fill-rule:evenodd;stroke:#010000;stroke-width:2.64462;stroke-opacity:1"
   id="path868"
   sodipodi:type="arc"
   sodipodi:cx="246.86302"
   sodipodi:cy="234.23508"
   sodipodi:rx="36.78265"
   sodipodi:ry="36.78265"
   sodipodi:start="0.83683651"
   sodipodi:end="0.83455187"
   sodipodi:open="true"
   sodipodi:arc-type="arc" /><metadata
   id="metadata319"><rdf:RDF><cc:Work
       rdf:about=""><dc:format>image/svg+xml</dc:format><dc:type
         rdf:resource="http://purl.org/dc/dcmitype/StillImage" /></cc:Work></rdf:RDF></metadata><defs
   id="defs317"><marker
     inkscape:stockid="Arrow1Send"
     orient="auto"
     refY="0"
     refX="0"
     id="Arrow1Send"
     style="overflow:visible"
     inkscape:isstock="true"><path
       inkscape:connector-curvature="0"
       id="path4714"
       d="M 0,0 5,-5 -12.5,0 5,5 Z"
       style="fill:#000000;fill-opacity:1;fill-rule:evenodd;stroke:#000000;stroke-width:1.00000003pt;stroke-opacity:1"
       transform="matrix(-0.2,0,0,-0.2,-1.2,0)" /></marker><clipPath
     id="clipPath69-0"><path
       inkscape:connector-curvature="0"
       id="path71-2"
       d="m 409.441,126.252 v -43.63 h 147.796 v 43.63" /></clipPath><clipPath
     id="clipPath101-1"><path
       inkscape:connector-curvature="0"
       id="path103-6"
       d="m 409.441,126.252 v -43.63 h 147.796 v 43.63" /></clipPath><clipPath
     id="clipPath69"><path
       inkscape:connector-curvature="0"
       id="path71"
       d="m 409.441,126.252 v -43.63 h 147.796 v 43.63" /></clipPath><clipPath
     id="clipPath101"><path
       inkscape:connector-curvature="0"
       id="path103"
       d="m 409.441,126.252 v -43.63 h 147.796 v 43.63" /></clipPath></defs><sodipodi:namedview
   pagecolor="#ffffff"
   bordercolor="#666666"
   borderopacity="1"
   objecttolerance="10"
   gridtolerance="10"
   guidetolerance="10"
   inkscape:pageopacity="0"
   inkscape:pageshadow="2"
   inkscape:window-width="1680"
   inkscape:window-height="987"
   id="namedview315"
   showgrid="false"
   inkscape:zoom="1.0022655"
   inkscape:cx="371.13476"
   inkscape:cy="374.07984"
   inkscape:window-x="-8"
   inkscape:window-y="-8"
   inkscape:window-maximized="1"
   inkscape:current-layer="Layer_1"
   inkscape:document-rotation="0" />
<style
   type="text/css"
   id="style2">
	.st0{fill:none;stroke:#000000;stroke-width:2;stroke-linecap:round;stroke-linejoin:round;stroke-miterlimit:10;}
</style>


<style
   type="text/css"
   id="style6578">.st0{fill:#2b8ca1}</style></svg>
